static/assets/img/icons/theme/files/protected-file.svg

<svg height="24" viewBox="0 0 24 24" width="24" xmlns="http://www.w3.org/2000/svg"><g fill="none" fill-rule="evenodd"><path d="m0 0h24v24h-24z" opacity="0"/><g fill="#000"><path d="m5.85714286 2h7.87926854c.3546848 0 .6978952.12568431.9686994.35473959l4.7635886 4.02920201c.3369538.28500673.5313006.70393663.5313006 1.14526041v12.55413129c0 1.7905418-.0204479 1.9166667-1.8571429 1.9166667h-12.28571424c-1.83669499 0-1.85714286-.1261249-1.85714286-1.9166667v-16.16666663c0-1.79054178.02044787-1.91666667 1.85714286-1.91666667z" fill-rule="nonzero" opacity=".3"/><path d="m14.5 12c.5522847 0 1 .4477153 1 1v3c0 .5522847-.4477153 1-1 1h-5c-.55228475 0-1-.4477153-1-1v-3c0-.5522847.44771525-1 1-1v-.5c0-1.3807119 1.1192881-2.5 2.5-2.5s2.5 1.1192881 2.5 2.5zm-2.5-2c-.8284271 0-1.5.6715729-1.5 1.5v.5h3v-.5c0-.8284271-.6715729-1.5-1.5-1.5z"/></g></g></svg>

<svg width="24px" height="24px" viewBox="0 0 24 24" version="1.1" xmlns="http://www.w3.org/2000/svg" xmlns:xlink="http://www.w3.org/1999/xlink">
    <title>Icon For Protected-file</title>
    <g stroke="none" stroke-width="1" fill="none" fill-rule="evenodd">
        <polygon points="0 0 24 0 24 24 0 24" opacity="0"></polygon>
        <path d="M5.85714286,2 L13.7364114,2 C14.0910962,2 14.4343066,2.12568431 14.7051108,2.35473959 L19.4686994,6.3839416 C19.8056532,6.66894833 20,7.08787823 20,7.52920201 L20,20.0833333 C20,21.8738751 19.9795521,22 18.1428571,22 L5.85714286,22 C4.02044787,22 4,21.8738751 4,20.0833333 L4,3.91666667 C4,2.12612489 4.02044787,2 5.85714286,2 Z" fill="#000000" fill-rule="nonzero" opacity="0.3"></path>
        <path d="M14.5,12 C15.0522847,12 15.5,12.4477153 15.5,13 L15.5,16 C15.5,16.5522847 15.0522847,17 14.5,17 L9.5,17 C8.94771525,17 8.5,16.5522847 8.5,16 L8.5,13 C8.5,12.4477153 8.94771525,12 9.5,12 L9.5,11.5 C9.5,10.1192881 10.6192881,9 12,9 C13.3807119,9 14.5,10.1192881 14.5,11.5 L14.5,12 Z M12,10 C11.1715729,10 10.5,10.6715729 10.5,11.5 L10.5,12 L13.5,12 L13.5,11.5 C13.5,10.6715729 12.8284271,10 12,10 Z" fill="#000000"></path>
    </g>
</svg>
